www/assets/icons/music_video.svg

<svg xmlns="http://www.w3.org/2000/svg" width="24" height="24" viewBox="0 0 24 24" fill='currentColor'><path d="M21 3H3c-1.1 0-2 .9-2 2v14c0 1.1.9 2 2 2h18c1.1 0 2-.9 2-2V5c0-1.1-.9-2-2-2m0 16H3V5h18zM8 15c0-1.66 1.34-3 3-3 .35 0 .69.07 1 .18V6h5v2h-3v7.03A3.003 3.003 0 0 1 11 18c-1.66 0-3-1.34-3-3"/></svg>

<svg width="24" height="24" viewBox="0 0 24 24" xmlns="http://www.w3.org/2000/svg" fill='currentColor'><path d="M21 3H3C1.9 3 1 3.9 1 5V19C1 20.1 1.9 21 3 21H21C22.1 21 23 20.1 23 19V5C23 3.9 22.1 3 21 3ZM21 19H3V5H21V19ZM8 15C8 13.34 9.34 12 11 12C11.35 12 11.69 12.07 12 12.18V6H17V8H14V15.03C13.98 16.67 12.65 18 11 18C9.34 18 8 16.66 8 15Z"/></svg>
